dist/assets/img/advantages/shield 6.svg

<svg width="40" height="28" viewBox="0 0 40 28" fill="none" xmlns="http://www.w3.org/2000/svg">
<path d="M40 0.619873H4.68775V5.3077H0V27.3799H35.3122V22.6921H40V0.619873ZM32.9684 10.7765C31.4528 10.3626 30.2572 9.16709 29.8434 7.65146H32.9684V10.7765ZM27.4435 7.65146C27.934 10.4626 30.1571 12.6859 32.9684 13.1763V19.5113C30.1572 20.0017 27.934 22.225 27.4435 25.0361H7.86862C7.37808 22.225 5.15494 20.0018 2.34376 19.5113V13.1763C5.15494 12.6858 7.37808 10.4626 7.86862 7.65146H27.4435ZM5.46869 7.65146C5.05486 9.16709 3.85939 10.3626 2.34376 10.7765V7.65146H5.46869ZM2.34376 21.9112C3.85939 22.325 5.05486 23.5206 5.46869 25.0362H2.34376V21.9112ZM29.8434 25.0362C30.2572 23.5206 31.4528 22.325 32.9684 21.9112V25.0362H29.8434ZM37.6562 20.3484H35.3122V5.3077H7.03151V2.96363H37.6562V20.3484Z" fill="white"/>
<path d="M17.656 21.3716C20.4283 21.3716 22.6837 19.1162 22.6837 16.3439C22.6837 13.5716 20.4283 11.3162 17.656 11.3162C14.8838 11.3162 12.6283 13.5716 12.6283 16.3439C12.6283 19.1162 14.8838 21.3716 17.656 21.3716ZM17.656 13.6599C19.136 13.6599 20.3399 14.864 20.3399 16.3439C20.3399 17.8238 19.136 19.0278 17.656 19.0278C16.1761 19.0278 14.972 17.8238 14.972 16.3439C14.972 14.864 16.1761 13.6599 17.656 13.6599Z" fill="white"/>
<path d="M25.514 15.1719H29.349V17.5156H25.514V15.1719Z" fill="white"/>
<path d="M5.96313 15.1719H9.79821V17.5156H5.96313V15.1719Z" fill="white"/>
</svg>

<svg width="40" height="28" fill="none" xmlns="http://www.w3.org/2000/svg"><path d="M40 .62H4.688v4.688H0V27.38h35.312v-4.688H40V.62zm-7.032 10.157a4.47 4.47 0 01-3.125-3.126h3.125v3.126zM27.443 7.65a6.816 6.816 0 005.525 5.525v6.335a6.816 6.816 0 00-5.525 5.525H7.87a6.816 6.816 0 00-5.525-5.525v-6.335A6.816 6.816 0 007.87 7.65h19.575zm-21.974 0a4.47 4.47 0 01-3.125 3.126V7.65h3.125zM2.344 21.91a4.47 4.47 0 013.125 3.125H2.344V21.91zm27.5 3.125a4.47 4.47 0 013.124-3.125v3.125h-3.125zm7.812-4.688h-2.344V5.308H7.032V2.964h30.624v17.384z" fill="#fff"/><path d="M17.656 21.372a5.033 5.033 0 005.028-5.028 5.033 5.033 0 00-5.028-5.028 5.033 5.033 0 00-5.028 5.028 5.033 5.033 0 005.028 5.028zm0-7.712a2.687 2.687 0 012.684 2.684 2.687 2.687 0 01-2.684 2.684 2.687 2.687 0 01-2.684-2.684 2.687 2.687 0 012.684-2.684zm7.858 1.512h3.835v2.344h-3.835v-2.344zm-19.551 0h3.835v2.344H5.963v-2.344z" fill="#fff"/></svg>
